candycane.svg

<svg fill="currentColor" viewBox="0 0 24 24"><path d="M10 10a2 2 0 0 1-2 2 2 2 0 0 1-2-2V8c0-.63.1-1.23.27-1.8L10 9.93zm2-8c.74 0 1.44.13 2.09.38L11.97 6c-.83 0-1.53.5-1.82 1.25L7.24 4.34A6 6 0 0 1 12 2m5.76 4.31L14 10.07V8c0-.38-.1-.73-.28-1.03l2.11-3.59a6 6 0 0 1 1.93 2.93m.24 6.78-4 4V12.9l4-4zM18 20a2 2 0 0 1-2 2 2 2 0 0 1-2-2v-.09l4-4z"/></svg>

<svg  viewBox="0 0 24 24" fill="currentColor"><path  d="M10,10A2,2 0 0,1 8,12A2,2 0 0,1 6,10V8C6,7.37 6.1,6.77 6.27,6.2L10,9.93V10M12,2C12.74,2 13.44,2.13 14.09,2.38L11.97,6C11.14,6 10.44,6.5 10.15,7.25L7.24,4.34C8.34,2.92 10.06,2 12,2M17.76,6.31L14,10.07V8C14,7.62 13.9,7.27 13.72,6.97L15.83,3.38C16.74,4.13 17.42,5.15 17.76,6.31M18,13.09L14,17.09V12.9L18,8.9V13.09M18,20A2,2 0 0,1 16,22A2,2 0 0,1 14,20V19.91L18,15.91V20Z"/></svg>
